images/icons/v2/leave-group-outline-16.svg

<svg fill="none" height="17" viewBox="0 0 17 17" width="17" xmlns="http://www.w3.org/2000/svg"><path d="m6.08342 10.875v5.625h-1.25v-5.625zm7.91668-10.208336h-6.66668c-.66305 0-1.29893.263392-1.76777.732236-.46884.46884-.73223 1.10472-.73223 1.76776v3.95834h1.25v-3.95834c0-.33152.13169-.64946.36611-.88388s.55236-.36612.88389-.36612h6.66668c.3315 0 .6494.1317.8839.36612.2344.23442.3661.55236.3661.88388v13.33334h1.25v-13.33334c0-.66304-.2634-1.29892-.7322-1.76776-.4689-.468844-1.1048-.732236-1.7678-.732236zm-5.07835 3.737496-.88333.88334 2.47998 2.48083.8492.60667h-10.700852v1.25h10.700852l-.9525.6808-2.37918 2.4084.88833.8791 4.56585-4.6208z" fill="#dedede"/></svg>

<svg width="17" height="17" viewBox="0 0 17 17" fill="none" xmlns="http://www.w3.org/2000/svg">
<path d="M6.08342 10.875V16.5H4.83342V10.875H6.08342ZM14.0001 0.666664H7.33342C6.67037 0.666664 6.03449 0.930056 5.56565 1.3989C5.09681 1.86774 4.83342 2.50362 4.83342 3.16666V7.125H6.08342V3.16666C6.08342 2.83514 6.21511 2.5172 6.44953 2.28278C6.68395 2.04836 7.00189 1.91666 7.33342 1.91666H14.0001C14.3316 1.91666 14.6495 2.04836 14.884 2.28278C15.1184 2.5172 15.2501 2.83514 15.2501 3.16666V16.5H16.5001V3.16666C16.5001 2.50362 16.2367 1.86774 15.7679 1.3989C15.299 0.930056 14.6631 0.666664 14.0001 0.666664ZM8.92175 4.40416L8.03842 5.2875L10.5184 7.76833L11.3676 8.375H0.666748V9.625H11.3676L10.4151 10.3058L8.03592 12.7142L8.92425 13.5933L13.4901 8.9725L8.92175 4.40416Z" fill="#DEDEDE"/>
</svg>
